!!!COM: Vivaldi, Antonio Lucio
!!!CDT: 1678/03/04-1741/08/28
!!!OPR: 12 sonatas for two violins and basso continuo
!!!OTL: Sonata in D minor, op. @{OPS}, no. @{ONM} (@{SCT})
!!!OPS: 1
!!!ONM: 8
!!!OMV: 3. [Grave]
!!!SCT: RV 64
!!!SCA: Antonio Vivaldi: Thematisch-systematisches Verzeichnis seiner Werke (Ryom-Verzeichnis)
!!!OMD: Grave
!!!key: d
**kern	**fb	**kern	**kern	**dynam
*part3	*	*part2	*part1	*
*staff3	*	*staff2	*staff1	*
*ICstr&ICklav	*	*ICstr	*ICstr	*
*Icello&Icemba	*	*Ivioln	*Ivioln	*
*	*	*I#2	*I#1	*
*I"Violoncello\nContinuo	*	*I"Violin 2	*I"Violin 1	*
*I'bc	*	*I'v2	*I'v1	*
*clefF4	*	*clefG2	*clefG2	*
*k[b-]	*	*k[b-]	*k[b-]	*
*d:	*	*d:	*d:	*
*M4/4	*	*M4/4	*M4/4	*
*met(c)	*	*met(c)	*met(c)	*
*MM32	*	*MM32	*MM32	*
=1	=1	=1	=1	=1
16r	.	4.aa\	1r	.
32r	.	.	.	.
32d\LLK	.	.	.	.
16.d\	.	.	.	.
32d\JJk	.	.	.	.
8d\L	.	.	.	.
8D\J	.	8dd\	.	.
16r	.	8gg\L	.	.
32r	.	.	.	.
32e\LLK	7	.	.	.
16.e\	.	8gg\	.	.
32e\JJk	.	.	.	.
8e\L	6#/	8.aa\	.	.
8E\J	.	.	.	.
.	.	16gg\Jk	.	.
=2	=2	=2	=2	=2
16r	.	16ff\LL	4.aa\	.
32r	.	16ee\J	.	.
32f\LLK	6	.	.	.
16.f\	.	8dd\J	.	.
32f\JJk	.	.	.	.
8f\L	.	8r	.	.
8F\J	.	16aa\LL	8dd\	.
.	.	16bb-y\JJ	.	.
16r	.	4.cc#y\	8gg\L	.
32r	.	.	.	.
32e\LLK	6#/	.	.	.
16.e\	.	.	8gg\	.
32e\JJk	.	.	.	.
8e\L	.	.	8aa\	.
8E\J	.	8cc#y\	8gg\J	.
!!LO:LB:g=original
=3	=3	=3	=3	=3
16r	.	8dd/L	8ff\L	.
32r	.	.	.	.
32d\LLK	.	.	.	.
16.d\	.	8d/J	16ee\L	.
.	.	.	16dd\JJ	.
32d\JJk	.	.	.	.
8c#X\L	6	16r	8aa\L	.
.	.	16ee\LL	.	.
8A\J	.	16aa\	8a\J	.
.	.	16gg\JJ	.	.
16r	.	4ff\	8dd\L	.
32r	.	.	.	.
32B-y\LLK	.	.	.	.
16.B-y\	.	.	16ee\L	.
.	.	.	16ff\JJ	.
32A\JJk	.	.	.	.
8G/L	6	8gg\L	8ee\L	.
8GG/J	5	16aa\L	16ff\L	.
.	.	16ff\JJ	16dd\JJ	.
=4	=4	=4	=4	=4
16r	.	4ee\	8cc#X\L	.
32r	.	.	.	.
32A\LLK	3	.	.	.
16.A\	.	.	8a\J	.
32A\JJk	.	.	.	.
8A\L	6 (5)	8r	[4ff\	.
8AA\J	n	8ccn\	.	.
16r	.	2b-y\	4ff\]	.
32r	.	.	.	.
32G\LLK	7	.	.	.
16.G\	.	.	.	.
32G\JJk	.	.	.	.
8G/L	6-r	.	8ee-X\L	.
8GG/J	5	.	8dd\J	.
=5	=5	=5	=5	=5
16r	.	8e/L	8cc#X\L	.
32r	.	.	.	.
32A\LLK	#	.	.	.
16.A\	.	8ee/	16cc#y\L	.
.	.	.	16dd\JJ	.
32A\JJk	.	.	.	.
8A\L	.	8cc#X/	4.ee\	.
8AA\J	.	8a/J	.	.
16r	.	[4ff\	.	.
32r	.	.	.	.
32d\LLK	9	.	.	.
16.d\	.	.	8a/	.
32d\JJk	.	.	.	.
8d\L	8	16ff\LL]	[4dd\	.
.	.	16gg\	.	.
8D\J	.	16aa\	.	.
.	.	16bb-y\JJ	.	.
!!LO:PB:g=original
=6	=6	=6	=6	=6
16r	.	2ee\	4dd\]	.
32r	.	.	.	.
32G\LLK	6 5	.	.	.
16.G\	.	.	.	.
32G\JJk	.	.	.	.
8A\L	#	.	4cc#X\t	.
8AA\J	.	.	.	.
16r	.	4dd\	4dd\	.
32r	.	.	.	.
32d\LLK	.	.	.	.
16.d\	.	.	.	.
32d\JJk	.	.	.	.
8d\L	.	8r	4r	.
8D\J	.	8dd\	.	.
=7	=7	=7	=7	=7
16r	.	[2aa\	4r	.
32r	.	.	.	.
32f\LLK	6	.	.	.
16.f\	.	.	.	.
32e\JJk	.	.	.	.
8d\L	.	.	8r	.
8D\J	.	.	8dd\	.
16r	.	8aa\L]	4.bb-y\	.
32r	.	.	.	.
32d\LLK	6 5	.	.	.
16.e\	5 3	8gg\J	.	.
32d\JJk	.	.	.	.
8c#X\L	7 5	[4gg\	.	.
8C#X\J	6 5	.	8aa\	.
=8	=8	=8	=8	=8
16r	.	8gg\L]	4.aa\	.
32r	.	.	.	.
32cn\LLK	6 5	.	.	.
16.d\	5 3	8ff\J	.	.
32c\JJk	.	.	.	.
8Bn\L	7 5	[4ff\	.	.
8BBn\J	6 5	.	8gg\	.
16r	.	8ff\L]	4.gg\	.
32r	.	.	.	.
32B-X\LLK	6 5	.	.	.
16.c\	5 3	8ee\J	.	.
32B-y\JJk	.	.	.	.
8A\L	7 5	[4ee\	.	.
8AA\J	6 5	.	8ff\	.
!!LO:LB:g=original
=9	=9	=9	=9	=9
16r	.	8ee\L]	4.ff\	.
32r	.	.	.	.
32A\LLK	6 5	.	.	.
16.Bn\	5 3	8dd\J	.	.
32A\JJk	.	.	.	.
8G#X/L	7 5	8dd\L	.	.
8GG#X/J	6 5	16cc\L	8ee\	.
.	.	16bn\JJ	.	.
16r	.	8cc\	8ee\L	.
32r	.	.	.	.
32A\LLK	.	.	.	.
16.A\	.	4a/	16dd\L	.
.	.	.	16cc\JJ	.
32D\JJk	.	.	.	.
8E/L	5nr 4	.	4bn\t	.
8EE/J	#	8g#X/	.	.
=10	=10	=10	=10	=10
16r	.	4a/	4a/	.
32r	.	.	.	.
32A\LLK	.	.	.	.
16.A\	.	.	.	.
32A\JJk	.	.	.	.
8A\L	.	4r	8ee\L	.
8AA\J	.	.	8a\J	.
16r	.	4r	[2ff\	.
32r	.	.	.	.
32d\LLK	.	.	.	.
16.d\	.	.	.	.
32d\JJk	.	.	.	.
8d\L	.	8a/L	.	.
8D\J	.	8d/J	.	.
=11	=11	=11	=11	=11
16r	.	2b-y\	4ff\]	.
32r	.	.	.	.
32G\LLK	7	.	.	.
16.G\	.	.	.	.
32G\JJk	.	.	.	.
8G/L	6-r	.	8ee-X\L	.
8GG/J	5	.	8dd\J	.
16r	.	8e/	8cc#X\L	.
32r	.	.	.	.
32A\LLK	#	.	.	.
16.A\	.	4ee\	16bn\L	.
.	.	.	16a\JJ	.
32A\JJk	.	.	.	.
8A\L	6 (5)	.	[4ff\	.
8AA\J	.	16dd\LL	.	.
.	.	16cc#X\JJ	.	.
!!LO:LB:g=original
=12	=12	=12	=12	=12
16r	.	16dd/LL	8ff\L]	.
32r	.	16d/	.	.
32G\LLK	.	.	.	.
16.G\	6	16g/	16ee\L	.
.	.	16f/JJ	16dd\JJ	.
32G\JJk	.	.	.	.
8A\L	#	4e/	4cc#X\t	.
8AA\J	.	.	.	.
16r	.	16d/LL	4dd\	.
32r	.	16a/	.	.
32d\LLK	.	.	.	.
16.d\	.	16dd/	.	.
.	.	16cc/JJ	.	.
32d\JJk	.	.	.	.
8G/L	.	[4b-y\	16r	.
.	.	.	16dd\LL	p
8GG/J	.	.	16gg\	.
.	.	.	16ff\JJ	.
=13	=13	=13	=13	=13
16r	.	16b-y/LL]	[4ee\	.
32r	.	16g/	.	.
32c\LLK	7	.	.	.
16.c\	.	16cc/	.	.
.	.	16b-y/JJ	.	.
32c\JJk	.	.	.	.
8F/L	7	[4a/	16ee\LL]	.
.	.	.	16cc\	.
8FF/J	.	.	16ff\	.
.	.	.	16ee\JJ	.
16r	.	16a/LL]	[4dd\	.
32r	.	16f/	.	.
32B-y\LLK	7	.	.	.
16.B-y\	.	16b-y/	.	.
.	.	16a/JJ	.	.
32B-y\JJk	.	.	.	.
8E/L	7	[4g/	16dd\LL]	.
.	.	.	16bn\	.
8EE/J	.	.	16ee\	.
.	.	.	16dd\JJ	.
=14	=14	=14	=14	=14
16r	.	16g/LL]	16a/LL	.
32r	.	16e/	16cc#X/	.
32A\LLK	5 #	.	.	.
16.A\	6 4	16f/	16dd/	.
.	.	16d/JJ	16f/JJ	.
32A\JJk	.	.	.	.
8A\L	5 #	8.c#X/L	8.e/Lt	.
8AA\J	.	.	.	.
.	.	16d/Jk	16d/Jk	.
2D\;	.	2d/;	2d/;	.
==	==	==	==	==
*-	*-	*-	*-	*-
!!!SMS: RV 64 / Estienne Roger (No. 363), Amsterdam [facs.]
!!!ENC: Fran Bennion   rev. 05/14/21 E Correia
!!!END: 2004/10/25
!!!ONB: Converted from MuseData with musedata2hum on Sat May 11 12:01:56 2024
!!!YEM: (C) 2004, 2019 Center for Computer Assisted Research in the Humanities
!!!system-decoration: [(s1,s2,s3)]
!!!URL-info: https://wiki.ccarh.org/wiki/MuseData:_Antonio_Vivaldi#Op._1:_Suonate_da_camera_a_tr.C3.A8.2C_due_violini_e_violone_o_cembalo Information about Vivaldi Op. 1 on the CCARH wiki
!!!URL-pdf: https://pdf.musedata.org/vivaldi-op01-no08.pdf#page=4 MuseData edition
!!!URL-pdf: https://s9.imslp.org/files/imglnks/usimg/1/18/IMSLP280399-PMLP10351-Vivaldi_Sonatas_Op_1_-_Violino_Primo.pdf#page=13 Violino primo part, Amsterdam: Estienne Roger, n.d.(ca.1723). Plate 363.
!!!URL-pdf: https://s9.imslp.org/files/imglnks/usimg/d/d5/IMSLP280400-PMLP10351-Vivaldi_Sonatas_Op_1_-_Violino_Secondo.pdf#page=11 Violino secondo part, Amsterdam: Estienne Roger, n.d.(ca.1723). Plate 363.
!!!URL-pdf: https://s9.imslp.org/files/imglnks/usimg/8/89/IMSLP280401-PMLP10351-Vivaldi_Sonatas_Op_1_-_Organo_e_Violoncello.pdf#page=12 Organo e Violoncello parts, Amsterdam: Estienne Roger, n.d.(ca.1723). Plate 363.
!!!URL-youtube: https://www.youtube.com/watch?v=P5HHPe_W6Uo&t=753s L'Arte dell'Arco
!!!title: @{OTL}, mov. @{OMV}
!!!filter-vcross: vcross
!!!EEV: 2024/05/11
!!!source-file: https://bitbucket.org/musedata/vivaldi/src/master/roger/op1/no08/stage2/03/01
!!!source-file: https://bitbucket.org/musedata/vivaldi/src/master/roger/op1/no08/stage2/03/02
!!!source-file: https://bitbucket.org/musedata/vivaldi/src/master/roger/op1/no08/stage2/03/03
!!!source-file: https://bitbucket.org/musedata/vivaldi/src/master/roger/op1/no08/stage2/03/04
